X:256
T:Music in the Glen
Z: id:dc-reel-236
M:C
L:1/8
K:G Major
D|G2BG EGDC|B,DGB AGAB|c2ec B2dB|cABG AGED|!
G2BG EGDC|B,DGB AGAB|cdef gfge|dcBA G3:|!
A|BGdG eGdc|BGdB cAFA|BGdG eGdf|gdBG AGEG|!
BGdG eGdf|gdfg afdf|gefd ecdB|cABG AGE:|!

